ix/call-slash_outline.svg

<svg viewBox="0 0 24 24" fill="none" xmlns="http://www.w3.org/2000/svg" height="1em" width="1em">
  <path d="M17.4501 22.7502C16.3201 22.7502 15.1301 22.4802 13.9001 21.9602C12.7001 21.4502 11.4901 20.7502 10.3101 19.9002L9.87011 19.5702C9.54011 19.3202 9.48011 18.8502 9.73011 18.5202C9.98011 18.1902 10.4501 18.1302 10.7801 18.3802L11.2001 18.6902C12.2801 19.4802 13.3901 20.1202 14.4901 20.5802C16.2001 21.3102 17.8001 21.4802 19.1201 20.9302C19.6301 20.7202 20.0801 20.4002 20.4901 19.9402C20.7201 19.6902 20.9001 19.4202 21.0501 19.1002C21.1701 18.8502 21.2301 18.5902 21.2301 18.3302C21.2301 18.1702 21.2001 18.0102 21.1201 17.8302C21.1001 17.7802 21.0301 17.6602 20.8401 17.5302L17.5201 15.1702C17.3201 15.0302 17.1401 14.9302 16.9701 14.8602C16.7101 14.7602 16.5401 14.7502 16.3201 14.8902C16.1201 14.9902 15.9401 15.1402 15.7401 15.3402L14.9801 16.0902C14.5901 16.4702 13.9901 16.5602 13.5301 16.3902C13.5101 16.3802 13.4101 16.3402 13.3901 16.3302C13.3801 16.3202 13.2701 16.2802 13.2601 16.2702C13.0401 16.1602 12.8001 16.0002 12.5201 15.8002C12.1901 15.5602 12.1101 15.0902 12.3501 14.7502C12.5901 14.4102 13.0601 14.3402 13.4001 14.5802C13.6101 14.7302 13.8001 14.8502 13.9601 14.9402L13.9501 15.0002L14.6801 14.2702C14.9901 13.9602 15.2901 13.7302 15.5801 13.5802C16.1301 13.2402 16.8301 13.1802 17.5301 13.4702C17.7901 13.5802 18.0701 13.7302 18.3701 13.9402L21.6901 16.3002C22.0501 16.5502 22.3301 16.8702 22.4901 17.2502C22.6401 17.6302 22.7101 17.9802 22.7101 18.3302C22.7101 18.8102 22.6001 19.2902 22.3901 19.7402C22.1801 20.1902 21.9201 20.5802 21.5901 20.9402C21.0201 21.5702 20.4001 22.0202 19.6801 22.3102C18.9901 22.6002 18.2401 22.7502 17.4501 22.7502ZM13.9501 15.0102L13.7901 15.6902L14.0601 14.9902C14.0201 14.9802 13.9701 14.9902 13.9501 15.0102Z" fill="#292D32"/>
  <path d="M7.47 17.24C7.28 17.24 7.08 17.17 6.94 17.02C5.89 15.96 4.92 14.83 4.08 13.66C3.22 12.46 2.53 11.27 2.04 10.1C1.51 8.87 1.25 7.67 1.25 6.54C1.25 5.76 1.39 5.02 1.66 4.33C1.95 3.61 2.39 2.96 3 2.39C3.77 1.64 4.65 1.25 5.59 1.25C5.98 1.25 6.38 1.34 6.72 1.5C7.11 1.68 7.44 1.95 7.68 2.31L10 5.58C10.21 5.87 10.37 6.15 10.48 6.43C10.61 6.73 10.68 7.03 10.68 7.32C10.68 7.7 10.57 8.07 10.36 8.42C10.21 8.69 9.98 8.98 9.69 9.27L9.01 9.98C9.02 10.01 9.03 10.03 9.04 10.05C9.16 10.26 9.4 10.62 9.86 11.16C10.34 11.72 10.81 12.22 11.27 12.7C11.56 13 11.56 13.47 11.26 13.76C10.96 14.05 10.49 14.05 10.2 13.75C9.71 13.25 9.23 12.72 8.72 12.13C8.25 11.58 7.91 11.11 7.7 10.72C7.68 10.68 7.66 10.64 7.65 10.6L7.58 10.43C7.52 10.21 7.5 10.08 7.5 9.94C7.5 9.58 7.63 9.26 7.88 9.01L8.63 8.23C8.83 8.03 8.98 7.84 9.08 7.67C9.16 7.54 9.19 7.43 9.19 7.33C9.19 7.25 9.16 7.13 9.11 7.01C9.03 6.82 8.92 6.65 8.78 6.45L6.46 3.17C6.36 3.03 6.24 2.93 6.09 2.86C5.94 2.79 5.77 2.75 5.59 2.75C5.04 2.75 4.53 2.99 4.04 3.47C3.59 3.9 3.26 4.37 3.06 4.88C2.85 5.4 2.75 5.95 2.75 6.54C2.75 7.47 2.97 8.48 3.41 9.52C3.86 10.58 4.49 11.68 5.29 12.78C6.09 13.88 7 14.95 8 15.96C8.29 16.25 8.29 16.73 8 17.02C7.85 17.17 7.66 17.24 7.47 17.24Z" fill="#292D32"/>
  <path d="M2.00043 22.7499C1.81043 22.7499 1.62043 22.6799 1.47043 22.5299C1.18043 22.2399 1.18043 21.7599 1.47043 21.4699L21.4704 1.46994C21.7604 1.17994 22.2404 1.17994 22.5304 1.46994C22.8204 1.75994 22.8204 2.23994 22.5304 2.52994L2.53043 22.5299C2.38043 22.6799 2.19043 22.7499 2.00043 22.7499Z" fill="#292D32"/>
</svg>

<svg viewBox="0 0 24 24" fill="none" xmlns="http://www.w3.org/2000/svg" height="1em" width="1em">
  <path d="M17.45 22.75c-1.13 0-2.32-.27-3.55-.79-1.2-.51-2.41-1.21-3.59-2.06l-.44-.33a.749.749 0 1 1 .91-1.19l.42.31c1.08.79 2.19 1.43 3.29 1.89 1.71.73 3.31.9 4.63.35.51-.21.96-.53 1.37-.99.23-.25.41-.52.56-.84.12-.25.18-.51.18-.77 0-.16-.03-.32-.11-.5-.02-.05-.09-.17-.28-.3l-3.32-2.36c-.2-.14-.38-.24-.55-.31-.26-.1-.43-.11-.65.03-.2.1-.38.25-.58.45l-.76.75c-.39.38-.99.47-1.45.3-.02-.01-.12-.05-.14-.06-.01-.01-.12-.05-.13-.06-.22-.11-.46-.27-.74-.47a.751.751 0 1 1 .88-1.22c.21.15.4.27.56.36l-.01.06.73-.73c.31-.31.61-.54.9-.69.55-.34 1.25-.4 1.95-.11.26.11.54.26.84.47l3.32 2.36c.36.25.64.57.8.95.15.38.22.73.22 1.08 0 .48-.11.96-.32 1.41-.21.45-.47.84-.8 1.2-.57.63-1.19 1.08-1.91 1.37-.69.29-1.44.44-2.23.44Zm-3.5-7.74-.16.68.27-.7c-.04-.01-.09 0-.11.02Zm-6.48 2.23c-.19 0-.39-.07-.53-.22a28.11 28.11 0 0 1-2.86-3.36c-.86-1.2-1.55-2.39-2.04-3.56-.53-1.23-.79-2.43-.79-3.56 0-.78.14-1.52.41-2.21.29-.72.73-1.37 1.34-1.94.77-.75 1.65-1.14 2.59-1.14.39 0 .79.09 1.13.25.39.18.72.45.96.81L10 5.58c.21.29.37.57.48.85.13.3.2.6.2.89 0 .38-.11.75-.32 1.1a4 4 0 0 1-.67.85l-.68.71c.01.03.02.05.03.07.12.21.36.57.82 1.11.48.56.95 1.06 1.41 1.54.29.3.29.77-.01 1.06-.3.29-.77.29-1.06-.01-.49-.5-.97-1.03-1.48-1.62-.47-.55-.81-1.02-1.02-1.41-.02-.04-.04-.08-.05-.12l-.07-.17a1.75 1.75 0 0 1-.08-.49c0-.36.13-.68.38-.93l.75-.78c.2-.2.35-.39.45-.56.08-.13.11-.24.11-.34 0-.08-.03-.2-.08-.32-.08-.19-.19-.36-.33-.56L6.46 3.17a.922.922 0 0 0-.37-.31c-.15-.07-.32-.11-.5-.11-.55 0-1.06.24-1.55.72-.45.43-.78.9-.98 1.41-.21.52-.31 1.07-.31 1.66 0 .93.22 1.94.66 2.98.45 1.06 1.08 2.16 1.88 3.26.8 1.1 1.71 2.17 2.71 3.18.29.29.29.77 0 1.06-.15.15-.34.22-.53.22Z" fill="#292D32"/>
  <path d="M2 22.75c-.19 0-.38-.07-.53-.22a.754.754 0 0 1 0-1.06l20-20c.29-.29.77-.29 1.06 0 .29.29.29.77 0 1.06l-20 20c-.15.15-.34.22-.53.22Z" fill="#292D32"/>
</svg>
